img/benefits/Group 36.svg

<svg width="92" height="63" viewBox="0 0 92 63" fill="none" xmlns="http://www.w3.org/2000/svg">
<rect x="0.2" y="0.2" width="91.6" height="62.6" rx="27.8" fill="#F9FBFF" stroke="#0037FC" stroke-width="0.4"/>
<path d="M32.6031 45H58.7494C60.27 45 61.4173 44.6175 62.1914 43.8525C62.9655 43.0875 63.3525 41.9538 63.3525 40.4515V22.5485C63.3525 21.0462 62.9655 19.9125 62.1914 19.1475C61.4173 18.3825 60.27 18 58.7494 18H32.6031C31.0835 18 29.9364 18.3825 29.1618 19.1475C28.3873 19.9125 28 21.0462 28 22.5485V40.4515C28 41.963 28.3873 43.0989 29.1618 43.8593C29.9364 44.6198 31.0835 45 32.6031 45Z" fill="#0037FC"/>
<path d="M32.705 42.4296C32.025 42.4296 31.5013 42.2491 31.134 41.8883C30.7667 41.5274 30.583 40.9863 30.583 40.2651V22.7451C30.583 22.0248 30.7667 21.4842 31.134 21.1233C31.5013 20.7625 32.025 20.582 32.705 20.582H58.6337C59.3148 20.582 59.8412 20.7625 60.2132 21.1233C60.5851 21.4842 60.771 22.0248 60.771 22.7451V40.2651C60.771 40.9863 60.5851 41.5274 60.2132 41.8883C59.8412 42.2491 59.3148 42.4296 58.6337 42.4296H32.705Z" fill="white"/>
<path d="M33.7941 40.4049H57.559C58.3498 40.4049 58.7452 39.9995 58.7452 39.1887V23.8217C58.7452 23.0109 58.3498 22.6055 57.559 22.6055H33.7941C33.0023 22.6055 32.6064 23.0109 32.6064 23.8217V39.1887C32.6064 39.9995 33.0023 40.4049 33.7941 40.4049Z" fill="#0037FC"/>
</svg>

<svg width="92" height="63" fill="none" xmlns="http://www.w3.org/2000/svg"><rect x=".2" y=".2" width="91.6" height="62.6" rx="27.8" fill="#F9FBFF" stroke="#0037FC" stroke-width=".4"/><path d="M32.603 45H58.75c1.521 0 2.668-.383 3.442-1.148.774-.764 1.161-1.898 1.161-3.4V22.549c0-1.503-.386-2.636-1.16-3.401C61.416 18.383 60.27 18 58.748 18H32.603c-1.52 0-2.667.383-3.441 1.148-.775.765-1.162 1.898-1.162 3.4v17.904c0 1.511.387 2.647 1.162 3.407.774.76 1.922 1.141 3.441 1.141z" fill="#0037FC"/><path d="M32.705 42.43c-.68 0-1.204-.18-1.571-.542-.367-.36-.551-.902-.551-1.623v-17.52c0-.72.184-1.26.551-1.622.367-.36.891-.541 1.571-.541h25.929c.68 0 1.207.18 1.58.541.371.361.557.902.557 1.622v17.52c0 .721-.186 1.262-.558 1.623-.372.361-.898.542-1.58.542H32.706z" fill="#fff"/><path d="M33.794 40.405H57.56c.79 0 1.186-.406 1.186-1.216V23.822c0-.811-.395-1.216-1.186-1.216H33.794c-.792 0-1.188.405-1.188 1.216v15.367c0 .81.396 1.216 1.188 1.216z" fill="#0037FC"/></svg>
